outputs/icons/image/image_library_round.svg

<svg xmlns="http://www.w3.org/2000/svg" width="1200" height="1200" fill="none"><g clip-path="url(#a)"><path fill="#000" d="M1100 800V200c0-55-45-100-100-100H400c-55 0-100 45-100 100v600c0 55 45 100 100 100h600c55 0 100-45 100-100M570 626.5l81.5 109 129-161c10-12.5 29-12.5 39 0l148 185C980.5 776 969 800 948 800H450c-20.5 0-32.5-23.5-20-40l100-133.5c10-13 30-13 40 0M100 350v650c0 55 45 100 100 100h650c27.5 0 50-22.5 50-50s-22.5-50-50-50H250c-27.5 0-50-22.5-50-50V350c0-27.5-22.5-50-50-50s-50 22.5-50 50"/></g><defs><clipPath id="a"><path fill="#fff" d="M0 0h1200v1200H0z"/></clipPath></defs></svg>

<svg width="1200" height="1200" viewBox="0 0 1200 1200" fill="none" xmlns="http://www.w3.org/2000/svg"><g clip-path="url(#clip0_238_2759)"><path d="M1100 800V200C1100 145 1055 100 1000 100H400C345 100 300 145 300 200V800C300 855 345 900 400 900H1000C1055 900 1100 855 1100 800ZM570 626.5L651.5 735.5L780.5 574.5C790.5 562 809.5 562 819.5 574.5L967.5 759.5C980.5 776 969 800 948 800H450C429.5 800 417.5 776.5 430 760L530 626.5C540 613.5 560 613.5 570 626.5ZM100 350V1000C100 1055 145 1100 200 1100H850C877.5 1100 900 1077.5 900 1050C900 1022.5 877.5 1000 850 1000H250C222.5 1000 200 977.5 200 950V350C200 322.5 177.5 300 150 300C122.5 300 100 322.5 100 350Z" fill="#1D1E23"/></g><defs><clipPath id="clip0_238_2759"><path width="24" fill="white" d="M0 0H1200V1200H0V0z"/></clipPath></defs></svg>
